X:135
T:AIR XLV. Polworth on the Green.
O:england
B:Joseph Mitchell: "The Highland Fair" (1731)
M:C|
L:1/8
K:C
G2 | E2 (DC) G2(FE)| G3  (A  G2)cd |e2(de) (fe)(dc)|d6
G2 | E2 (DC) G2(FE)| F3   G  A2(GF)|G2 e2  (fe)(de)|c6 ||
(cd)|(ef)(ga) g2 fe |(de)(fg) f2(ed)|c3  d  (cd)(ef)|d4 z2
G2 |(FE)(DC) G2(FE)| F3   G  A2(GF)|G2 e2  (fe)(de)|d6 |]


